X:0605
T:Hilton Lodge.
M:C
L:1/8
Q:1/4=120
I: :| ||
Z:Jack Campin * www.campin.me.uk * 2009
K:D
(f/g/)|a<da>f geTef/g/|ada>f  d>faf |g>ef>d e(EE>)F|D>Fd>F A2A:|
 F    |DFdF   G(EE).F |D>FdF  A>dFd |A<dF<d e(EE)F |D>FdF  A2AF |
       D>FdF  GEEF    |D>Fd>F A<dF<d|GeFd E(ee)f/g/|fdec   d2d|]
<end>
<start>
